X:5667
T:Gan ainm
R:Polka
S:Martin O'Connor
H:
N:
D:Live concert Galway
Z:Adrian Scahill
M:2/4
L:1/8
K:G
eAag|edcA|B>A GE|ga/2g/2 ed|\
eAag|edBg|e/2g/2e/2d/2 eg|eAA2:||\
B>A GE|G2GD|EA AG/2A/2|BAAd|\
B>A GE|G2G>e|dGG>A|BGG2:||


